dist/svg/u1F384.svg

<?xml version="1.0" encoding="UTF-8"?><svg id="Layer_1" xmlns="http://www.w3.org/2000/svg" viewBox="0 0 40 40"><rect x="0" y="0" width="40" height="40" style="fill:none;"/><g><g><rect x="17.98119" y="8.86566" width="4.03797" height="30.13434" rx="1.00949" ry="1.00949" style="fill:#86584a;"/><g><path d="M18.48827,13.38892L5.38427,29.73061c-1.0171,1.2684-.1141,3.14995,1.51173,3.14995h26.20799c1.62583,0,2.52883-1.88155,1.51173-3.14995L21.51173,13.38892c-.77569-.96735-2.24776-.96735-3.02346,0Z" style="fill:#0a9f60;"/><path d="M18.82576,8.04121L7.95346,21.5998c-.79003,.98523-.08863,2.44673,1.17424,2.44673H30.8723c1.26287,0,1.96427-1.4615,1.17424-2.44673l-10.8723-13.55859c-.60252-.75139-1.74596-.75139-2.34848,0Z" style="fill:#23b169;"/><path d="M19.1273,4.08658L10.61322,14.70429c-.58715,.73222-.06587,1.81841,.8727,1.81841H28.51408c.93856,0,1.45985-1.08619,.8727-1.81841L20.8727,4.08658c-.44779-.55843-1.2976-.55843-1.74539,0Z" style="fill:#68c76f;"/></g></g><circle cx="16.32096" cy="16.77721" r="1.69717" style="fill:#fff;"/><circle cx="22.55769" cy="21.03295" r="1.82247" style="fill:#ffe63b;"/><circle cx="23.56719" cy="13.95701" r="1.29092" style="fill:#ef4452;"/><circle cx="14.48175" cy="27.07092" r="1.29092" style="fill:#ffb72d;"/><circle cx="26.56619" cy="28.61589" r="1.51873" style="fill:#fff;"/><path d="M20.45397,1.2822l.91606,1.85615c.07374,.14942,.21628,.25298,.38117,.27694l2.04838,.29765c.41523,.06034,.58103,.57062,.28057,.8635l-1.48222,1.44481c-.11932,.1163-.17376,.28387-.14559,.4481l.34991,2.0401c.07093,.41356-.36314,.72893-.73454,.53367l-1.83213-.96321c-.14748-.07754-.32367-.07754-.47115,0l-1.83213,.96321c-.3714,.19525-.80547-.12012-.73454-.53367l.34991-2.0401c.02817-.16422-.02628-.33179-.14559-.4481l-1.48222-1.44481c-.30047-.29288-.13467-.80316,.28057-.8635l2.04838-.29765c.16489-.02396,.30743-.12752,.38117-.27694l.91606-1.85615c.1857-.37627,.72224-.37627,.90794,0Z" style="fill:#ffcd00;"/></g></svg>

<svg id="Layer_1" data-name="Layer 1" xmlns="http://www.w3.org/2000/svg" viewBox="0 0 40 40"><defs><style>.cls-1{fill:none;}.cls-2{fill:#86584a;}.cls-3{fill:#0a9f60;}.cls-4{fill:#23b169;}.cls-5{fill:#68c76f;}.cls-6{fill:#fff;}.cls-7{fill:#ffe63b;}.cls-8{fill:#ef4452;}.cls-9{fill:#ffb72d;}.cls-10{fill:#ffcd00;}</style></defs><rect class="cls-1" width="40" height="40"/><rect class="cls-2" x="17.981" y="8.866" width="4.038" height="30.134" rx="1.009"/><path class="cls-3" d="M18.488,13.389,5.384,29.731A1.938,1.938,0,0,0,6.9,32.881H33.1a1.938,1.938,0,0,0,1.512-3.15l-13.1-16.342A1.939,1.939,0,0,0,18.488,13.389Z"/><path class="cls-4" d="M18.826,8.041,7.953,21.6a1.506,1.506,0,0,0,1.175,2.447H30.872A1.506,1.506,0,0,0,32.047,21.6L21.174,8.041A1.505,1.505,0,0,0,18.826,8.041Z"/><path class="cls-5" d="M19.127,4.087,10.613,14.7a1.119,1.119,0,0,0,.873,1.819H28.514a1.119,1.119,0,0,0,.873-1.819L20.873,4.087A1.119,1.119,0,0,0,19.127,4.087Z"/><circle class="cls-6" cx="16.321" cy="16.777" r="1.697"/><circle class="cls-7" cx="22.558" cy="21.033" r="1.822"/><circle class="cls-8" cx="23.567" cy="13.957" r="1.291"/><circle class="cls-9" cx="14.482" cy="27.071" r="1.291"/><circle class="cls-6" cx="26.566" cy="28.616" r="1.519"/><path class="cls-10" d="M20.454,1.282l.916,1.856a.505.505,0,0,0,.381.277l2.049.3a.506.506,0,0,1,.28.863L22.6,6.021a.508.508,0,0,0-.146.448l.35,2.04a.506.506,0,0,1-.734.534L20.236,8.08a.505.505,0,0,0-.472,0l-1.832.963a.506.506,0,0,1-.734-.534l.35-2.04a.508.508,0,0,0-.146-.448L15.92,4.576a.506.506,0,0,1,.28-.863l2.049-.3a.505.505,0,0,0,.381-.277l.916-1.856A.506.506,0,0,1,20.454,1.282Z"/></svg>
